/* XPM */
static const char * IconBspPuzzle[] = {
/* width height ncolors chars_per_pixel */
"32 32 146 2",
/* colors */
"`` c #0062F1",
"`a c #00B037",
"`b c #006ADD",
"`c c #0072C9",
"`d c #007AB5",
"`e c #0060F4",
"`f c #0065EA",
"`g c #00BD1C",
"`h c #009479",
"`i c #0075C2",
"`j c #0063ED",
"`k c #00B629",
"`l c #006BD9",
"`m c #00CC01",
"`n c #00CA01",
"`o c #00A454",
"`p c #005EFA",
"`q c #00859D",
"`r c #0066E6",
"`s c #008D89",
"`t c #006ED2",
"`u c #00CC04",
"`v c #007BB4",
"`w c #005CFD",
"`x c #00AC43",
"`y c #0083A0",
"`z c #0061F3",
"a` c #008B8C",
"aa c #0069DF",
"ab c #009D64",
"ac c #005FF6",
"ad c #0064EC",
"ae c #00B232",
"af c #00BC1E",
"ag c #00C114",
"ah c #00D300",
"ai c #00D100",
"aj c #009671",
"ak c #00CF00",
"al c #00CD00",
"am c #00CB00",
"an c #005FF9",
"ao c #0062EF",
"ap c #006FD1",
"aq c #00C903",
"ar c #005DFC",
"as c #0062F2",
"at c #0065E8",
"au c #0068DE",
"av c #00C706",
"aw c #009E63",
"ax c #0060F5",
"ay c #0063EB",
"az c #00B331",
"b` c #0068E1",
"ba c #00C213",
"bb c #0070CD",
"bc c #00C013",
"bd c #0063EE",
"be c #008A91",
"bf c #0066E4",
"bg c #006BDA",
"bh c #00BB20",
"bi c #00C016",
"bj c #00C50C",
"bk c #00CA02",
"bl c #0078BC",
"bm c #0061F1",
"bn c #00B923",
"bo c #009576",
"bp c #00C605",
"bq c #009D62",
"br c #005CFE",
"bs c #00AA44",
"bt c #0061F4",
"bu c #00AF3A",
"bv c #0064EA",
"bw c #009083",
"bx c #00C112",
"by c #00AA47",
"bz c #0081A4",
"c` c #005FF7",
"ca c #0064ED",
"cb c #0067E3",
"cc c #00B729",
"cd c #009672",
"ce c #009B68",
"cf c #00C901",
"cg c #00A05E",
"ch c #0062F0",
"ci c #008993",
"cj c #00C20E",
"ck c #00C904",
"cl c #007AB4",
"cm c #00A157",
"cn c #005DFD",
"co c #0084A0",
"cp c #00AB43",
"cq c #0060F3",
"cr c #0065E9",
"cs c #006DD5",
"ct c #009478",
"cu c #00C211",
"cv c #0075C1",
"cw c #0082A3",
"cx c #0060F6",
"cy c #0063EC",
"cz c #00927B",
"d` c #00D200",
"da c #00D000",
"db c #00C50A",
"dc c #00CE00",
"dd c #00CC00",
"de c #00CA00",
"df c #007DB0",
"dg c #00A453",
"dh c #005EF9",
"di c #0063EF",
"dj c #00B335",
"dk c #008A92",
"dl c #0066E5",
"dm c #00907E",
"dn c #00C803",
"do c #007BB3",
"dp c #0061F2",
"dq c #008895",
"dr c #00BB24",
"ds c #0079B6",
"dt c #007EAC",
"du c #0083A2",
"dv c #005AFF",
"dw c #0058FF",
"dx c #0064EB",
"dy c #006CD7",
"dz c #0071CD",
"e` c #00C113",
"ea c #006FCD",
"eb c #00A552",
"ec c #005FF8",
"ed c #0062EE",
"ee c #00B234",
"ef c #00B72A",
"eg c #00CB02",
"eh c #00C902",
"ei c #00A84B",
"ej c #005DFB",
/* pixels */
"dededededededededededededededededededededededededededededededede",
"dededededededededededededededededededededededededededededededede",
"dededededededededededededededededededededededededededededededede",
"dedededededededededededededededededededede`n`nehehaqaqaqaqdedede",
"dededededededede`ncfehehaqaqaqaqaqehehcf`namddaldcakdadadaamdede",
"dededeeheheh`ndeamddaldcakdadadaakakdcdcddbpcu`gccdj`xcmcdbnddeh",
"dededeakakdcdddeavbxafef`aeicgajbwdkbz`dcvbbcs`b`redcqdvaue`ddcf",
"`namcjdmdqdu`v`idzdyaa`raoacar`warej`pdheccxbtdpchbdcrdh`haiehde",
"deeh`u`ydwacdhc`cxbtaschbdaddx`fdxdxdxadadadadca`jadchcbbhalehde",
"decfalagdy``bvadadad`j`j`jbdbdbdbdbdbdbdbdbdbdbdbddxejcwdcehdede",
"dedeehdabqdhdxbdbdbdbdbdbdbdbdbdbdbdbdbdbdbdbdbdbd`jdpcpakaqdede",
"dede`nbkegdsandxbdbdbdbdbdbdbdbdbdbdbdbdbdbdbdbdadc`cvck`n`ndede",
"dededeehdcaeaydi`jbdbdbdbdbdbdbdbdbdbdbdbdbdbdbddx`pcedaaqdedede",
"dedededeaqda`sarbvbdbdbdbdbdbdbdbdbdbdbdbdbdbd`j`zbgbcddbkdedede",
"dedededecf`mcu`t`eadbdbdbdbdbdbdbdbdbdbdbdbdbddxarbeakehdededede",
"dededededeehdadgc`adbdbdbdbdbdbdbdbdbdbdbdbdbddicyazdcaqdededede",
"dedededede`nbkdddt`pdxbdbdbdbdbdbdbdbdbdbdbddxdhdoddcfdedededede",
"dedededededeehal`katchcabdbdbdbdbdbdbdbdbdbdadc``odaaqdedededede",
"dededededededeehdaczejbvbdbdbdbdbdbdbdbdbdadaxapbjbkdnaqaqaqaqeh",
"dededededede`nehegbjeac`adbdbdbdbdbdbdbdbddxar`hahalakdadadaakdc",
"aqaqaqaqaqeh`namded`bsbmbd`jbdbdbdbdbdbd`jchdlbudree`x`oabboci`q",
"akdadadaakdcamdndbbabiclc`adbdbdbdbdbdbdbddidxb`cy``cqc`dharbrcn",
"byebawcta`codfbl`c`lbf`fbdbdbdbdbdbdbdbdbdbddi``dibd`jadaddxbvdx",
"axc`dhejarcn`pecax`z``dibdbdbdbdbdbdbdbdbdbdbd`jbdbdbdbdbdbdbdbd",
"caadaddxdxdxdxadad`j`jbdbdbdbdbdbdbdbdbdbdbdbdbdbdbdbdbdbdbdbdbd",
"bdbdbdbdbdbdbdbdbdbdbdbdbdbdbdbdbdbdbdbdbdbdbdbdbdbdbdbdbdbdbdbd",
"bdbdbdbdbdbdbdbdbdbdbdbdbdbdbdbdbdbdbdbdbdbdbdbdbdbdbdbdbdbdbdbd",
"bdbdbdbdbdbdbdbdbdbdbdbdbdbdbdbdbdbdbdbdbdbdbdbdbdbdbdbdbdbdbdbd",
"bdbdbdbdbdbdbdbdbdbdbdbdbdbdbdbdbdbdbdbdbdbdbdbdbdbdbdbdbdbdbdbd",
"bdbdbdbdbdbdbdbdbdbdbdbdbdbdbdbdbdbdbdbdbdbdbdbdbdbdbdbdbdbdbdbd",
"bdbdbdbdbdbdbdbdbdbdbdbdbdbdbdbdbdbdbdbdbdbdbdbdbdbdbdbdbdbdbdbd",
"bdbdbdbdbdbdbdbdbdbdbdbdbdbdbdbdbdbdbdbdbdbdbdbdbdbdbdbdbdbdbdbd"
};
